images/svg/Cartoon_Network_2005.svg

<?xml version="1.0" encoding="UTF-8" standalone="no"?>
<!-- Created with Inkscape (http://www.inkscape.org/) -->

<svg
   xmlns:dc="http://purl.org/dc/elements/1.1/"
   xmlns:cc="http://creativecommons.org/ns#"
   xmlns:rdf="http://www.w3.org/1999/02/22-rdf-syntax-ns#"
   xmlns:svg="http://www.w3.org/2000/svg"
   xmlns="http://www.w3.org/2000/svg"
   version="1.0"
   width="50"
   height="33"
   id="svg2">
  <metadata
     id="metadata32">
    <rdf:RDF>
      <cc:Work
         rdf:about="">
        <dc:format>image/svg+xml</dc:format>
        <dc:type
           rdf:resource="http://purl.org/dc/dcmitype/StillImage" />
        <dc:title></dc:title>
      </cc:Work>
    </rdf:RDF>
  </metadata>
  <defs
     id="defs30" />
  <g
     transform="translate(-6.4497678,-1011.7919)"
     id="layer1">
    <g
       transform="matrix(3.4230164,0,0,-3.4230164,-2230.8371,1965.1213)"
       id="g106416">
      <path
         d="m 659.382,278.496 -0.007,-0.003 1.797,-6.502 -6.363,-1.719 0,-0.005 8.317,1.147 -3.744,7.082 z"
         id="path106418"
         style="fill:#a7a9ac;fill-rule:nonzero;stroke:none" />
      <path
         d="m 658.069,274.282 c -0.071,-0.349 -0.268,-0.648 -0.653,-0.759 -0.491,-0.142 -0.948,0.111 -1.096,0.607 -0.136,0.453 0.112,1.016 0.599,1.173 0.395,0.127 0.747,-0.009 0.983,-0.285 l 1.277,1.011 c -0.582,0.753 -1.813,0.999 -2.866,0.513 -1.001,-0.462 -1.78,-1.753 -1.412,-3.011 0.369,-1.261 1.763,-1.915 3.08,-1.437 0.966,0.351 1.608,1.326 1.677,2.207 l -1.589,-0.019 z"
         id="path106420"
         style="fill:#ffffff;fill-rule:nonzero;stroke:none" />
      <path
         d="m 666.437,276.364 -0.027,-0.003 -0.336,-5.422 -6.333,-0.321 -0.003,-0.009 6.956,-0.337 -0.257,6.092 z"
         id="path106422"
         style="fill:#a7a9ac;fill-rule:nonzero;stroke:none" />
      <path
         d="m 661.172,271.991 -1.797,6.502 -5.774,-2.147 1.206,-6.074 6.365,1.719 z"
         id="path106424"
         style="fill:#000000;fill-rule:nonzero;stroke:none" />
      <path
         d="m 666.074,270.939 0.337,5.454 -5.8,-0.142 -0.872,-5.633 6.335,0.321 z"
         id="path106426"
         style="fill:#ffffff;fill-rule:nonzero;stroke:none" />
      <path
         d="m 658.069,274.282 c -0.071,-0.349 -0.268,-0.648 -0.653,-0.759 -0.491,-0.142 -0.948,0.111 -1.096,0.607 -0.136,0.453 0.112,1.016 0.599,1.173 0.395,0.127 0.747,-0.009 0.983,-0.285 l 1.277,1.011 c -0.582,0.753 -1.813,0.999 -2.866,0.513 -1.001,-0.462 -1.78,-1.753 -1.412,-3.011 0.369,-1.261 1.763,-1.915 3.08,-1.437 0.966,0.351 1.608,1.326 1.677,2.207 l -1.589,-0.019 z"
         id="path106428"
         style="fill:#ffffff;fill-rule:nonzero;stroke:none" />
      <path
         d="m 665.468,275.706 -1.45,-0.013 -0.128,-1.649 -0.026,-0.002 -2.515,1.517 -0.596,-3.998 1.456,-0.019 0.148,1.521 2.816,-1.656 0.295,4.299 z"
         id="path106430"
         style="fill:#000000;fill-rule:nonzero;stroke:none" />
      <path
         d="m 660.538,269.753 0,-0.878 c -0.045,0.027 -0.594,0.347 -0.594,0.347 l 0,-0.341 -0.261,0 0,0.855 c 0.046,-0.029 0.57,-0.354 0.57,-0.354 l 0.024,0.006 0,0.365 0.261,0 z"
         id="path106432"
         style="fill:#000000;fill-rule:nonzero;stroke:none" />
      <path
         d="m 657.593,269.752 0,-0.207 -0.259,0 0,-0.664 -0.289,0 0,0.664 -0.253,0 0,0.207 0.801,0 z"
         id="path106434"
         style="fill:#000000;fill-rule:nonzero;stroke:none" />
      <path
         d="m 656.534,269.255 0.014,0.008 c 0.077,0.049 0.123,0.133 0.123,0.224 0,0.146 -0.119,0.265 -0.265,0.265 l -0.263,10e-4 -0.312,0 0,-0.872 0.284,0 0,0.252 0.144,0 c 0,0 0.165,-0.239 0.174,-0.252 l 0.34,0 c -0.028,0.044 -0.239,0.374 -0.239,0.374 m -0.284,0.09 -0.134,0 -10e-4,0.227 0.135,0 c 0.062,0 0.113,-0.051 0.113,-0.114 0,-0.062 -0.051,-0.113 -0.113,-0.113"
         id="path106436"
         style="fill:#000000;fill-rule:nonzero;stroke:none" />
      <path
         d="m 658.08,269.756 c -0.263,0 -0.477,-0.198 -0.477,-0.441 0,-0.243 0.214,-0.44 0.477,-0.44 0.263,0 0.477,0.197 0.477,0.44 0,0.243 -0.214,0.441 -0.477,0.441 m 0,-0.637 c -0.108,0 -0.196,0.088 -0.196,0.196 0,0.108 0.088,0.196 0.196,0.196 0.109,0 0.197,-0.088 0.197,-0.196 0,-0.108 -0.088,-0.196 -0.197,-0.196"
         id="path106438"
         style="fill:#000000;fill-rule:nonzero;stroke:none" />
      <path
         d="m 659.09,269.756 c -0.263,0 -0.477,-0.198 -0.477,-0.441 0,-0.243 0.214,-0.44 0.477,-0.44 0.263,0 0.477,0.197 0.477,0.44 0,0.243 -0.214,0.441 -0.477,0.441 m 0,-0.637 c -0.108,0 -0.196,0.088 -0.196,0.196 0,0.108 0.088,0.196 0.196,0.196 0.109,0 0.197,-0.088 0.197,-0.196 0,-0.108 -0.088,-0.196 -0.197,-0.196"
         id="path106440"
         style="fill:#000000;fill-rule:nonzero;stroke:none" />
      <path
         d="m 653.793,269.314 c 0,0.247 0.216,0.448 0.481,0.448 0.187,0 0.355,-0.101 0.435,-0.257 -0.03,-0.011 -0.239,-0.091 -0.261,-0.099 -0.034,0.065 -0.099,0.107 -0.174,0.107 -0.109,0 -0.198,-0.089 -0.198,-0.199 0,-0.109 0.089,-0.199 0.198,-0.199 0.072,0 0.137,0.041 0.172,0.103 0.019,-0.006 0.24,-0.066 0.273,-0.075 -0.074,-0.165 -0.25,-0.276 -0.445,-0.276 -0.265,0 -0.481,0.2 -0.481,0.447"
         id="path106442"
         style="fill:#000000;fill-rule:nonzero;stroke:none" />
      <path
         d="m 655.222,269.813 c -0.004,0.006 -0.012,0 -0.012,0 -0.058,-0.102 -0.538,-0.936 -0.536,-0.933 0.049,0 0.291,-0.003 0.309,-0.003 0.009,0.016 0.062,0.118 0.062,0.118 l 0.341,0 c 0,0 0.043,-0.098 0.051,-0.115 0.019,0 0.268,0 0.316,0 -0.109,0.192 -0.477,0.844 -0.531,0.933 m -0.111,-0.651 0.097,0.184 0.004,0 0.105,-0.184 -0.206,0 z"
         id="path106444"
         style="fill:#000000;fill-rule:nonzero;stroke:none" />
      <path
         d="m 667.695,269.749 c -0.026,-0.044 -0.243,-0.403 -0.243,-0.403 0,0 0.274,-0.42 0.303,-0.465 l -0.338,0 c -0.009,0.014 -0.27,0.39 -0.27,0.39 l -0.002,-0.052 0,-0.338 -0.26,0 0,0.868 0.26,0 0,-0.406 c 0,0 0.257,0.391 0.266,0.406 l 0.284,0 z"
         id="path106446"
         style="fill:#000000;fill-rule:nonzero;stroke:none" />
      <path
         d="m 661.861,269.752 0,-0.887 c -0.046,0.027 -0.598,0.354 -0.598,0.354 0,0 0.003,-0.308 0.003,-0.337 l -0.289,0 0,0.87 c 0.046,-0.029 0.568,-0.356 0.568,-0.356 l 0.023,0.006 0,0.35 0.293,0 z"
         id="path106448"
         style="fill:#000000;fill-rule:nonzero;stroke:none" />
      <path
         d="m 662.357,269.75 c 0,0 0.329,0 0.359,0 l 0,-0.182 -0.375,0 0,-0.16 0.344,0 0,-0.183 -0.344,0 0,-0.16 0.375,0 0,-0.182 -0.645,0 0,0.867 0.286,0 z"
         id="path106450"
         style="fill:#000000;fill-rule:nonzero;stroke:none" />
      <path
         d="m 663.635,269.749 0,-0.207 -0.257,0 c 0,0 0,-0.63 0,-0.661 l -0.289,0 0,0.661 -0.251,0 0,0.207 0.797,0 z"
         id="path106452"
         style="fill:#000000;fill-rule:nonzero;stroke:none" />
      <path
         d="m 663.987,269.75 c 0.008,-0.018 0.131,-0.31 0.131,-0.31 0,0 0.101,0.233 0.124,0.287 0.023,-0.054 0.122,-0.287 0.122,-0.287 0,0 0.125,0.292 0.132,0.31 l 0.288,0 c -0.016,-0.041 -0.318,-0.826 -0.34,-0.883 -0.029,0.048 -0.201,0.34 -0.201,0.34 0,0 -0.188,-0.294 -0.218,-0.341 -0.02,0.056 -0.31,0.844 -0.325,0.884 l 0.287,0 z"
         id="path106454"
         style="fill:#000000;fill-rule:nonzero;stroke:none" />
      <path
         d="m 666.563,269.255 0.014,0.008 c 0.077,0.049 0.123,0.132 0.123,0.223 0,0.145 -0.119,0.264 -0.265,0.264 l -0.261,0 -0.31,0 0,-0.868 0.293,0 0,0.251 0.148,0 c 0,0 0.156,-0.238 0.165,-0.251 l 0.339,0 c -0.029,0.044 -0.246,0.373 -0.246,0.373 m -0.273,0.079 -0.126,0 -0.002,0.225 0.128,0 c 0.062,0 0.113,-0.05 0.113,-0.112 0,-0.062 -0.051,-0.113 -0.113,-0.113"
         id="path106456"
         style="fill:#000000;fill-rule:nonzero;stroke:none" />
      <path
         d="m 665.279,269.753 c -0.262,0 -0.475,-0.197 -0.475,-0.439 0,-0.242 0.213,-0.438 0.475,-0.438 0.262,0 0.475,0.196 0.475,0.438 0,0.242 -0.213,0.439 -0.475,0.439 m 0,-0.634 c -0.108,0 -0.195,0.087 -0.195,0.195 0,0.108 0.087,0.196 0.195,0.196 0.108,0 0.196,-0.088 0.196,-0.196 0,-0.108 -0.088,-0.195 -0.196,-0.195"
         id="path106458"
         style="fill:#000000;fill-rule:nonzero;stroke:none" />
      <path
         d="m 667.871,269.039 -0.063,0 0,0.025 0.153,0 0,-0.025 -0.062,0 0,-0.174 -0.028,0 0,0.174 z"
         id="path106460"
         style="fill:#000000;fill-rule:nonzero;stroke:none" />
      <path
         d="m 667.99,269.064 0.048,0 0.062,-0.165 0.061,0.165 0.047,0 0,-0.199 -0.028,0 0,0.173 -10e-4,0 -0.066,-0.173 -0.028,0 -0.066,0.173 -10e-4,0 0,-0.173 -0.028,0 0,0.199 z"
         id="path106462"
         style="fill:#000000;fill-rule:nonzero;stroke:none" />
    </g>
  </g>
</svg>

<?xml version="1.0" encoding="UTF-8" standalone="no"?>
<!-- Created with Inkscape (http://www.inkscape.org/) -->
<svg xmlns:dc="http://purl.org/dc/elements/1.1/" xmlns:cc="http://web.resource.org/cc/" xmlns:rdf="http://www.w3.org/1999/02/22-rdf-syntax-ns#" xmlns:svg="http://www.w3.org/2000/svg" xmlns="http://www.w3.org/2000/svg" xmlns:xlink="http://www.w3.org/1999/xlink" xmlns:sodipodi="http://sodipodi.sourceforge.net/DTD/sodipodi-0.dtd" xmlns:inkscape="http://www.inkscape.org/namespaces/inkscape" width="182" height="120" id="svg2" sodipodi:version="0.32" inkscape:version="0.45.1" version="1.0" inkscape:output_extension="org.inkscape.output.svg.inkscape">
  <g inkscape:label="Layer 1" inkscape:groupmode="layer" id="layer1" transform="translate(-6.4497678,-924.79191)">
    <g clip-path="url(#id3166)" id="g106416" transform="matrix(12.45978,0,0,-12.45978,-8137.2749,4394.7908)">
      <path style="fill:#a7a9ac;fill-rule:nonzero;stroke:none" d="M 659.382,278.496 L 659.375,278.493 L 661.172,271.991 L 654.809,270.272 L 654.809,270.267 L 663.126,271.414 L 659.382,278.496 z " id="path106418"/>
      <path style="fill:#ffffff;fill-rule:nonzero;stroke:none" d="M 658.069,274.282 C 657.998,273.933 657.801,273.634 657.416,273.523 C 656.925,273.381 656.468,273.634 656.32,274.13 C 656.184,274.583 656.432,275.146 656.919,275.303 C 657.314,275.43 657.666,275.294 657.902,275.018 L 659.179,276.029 C 658.597,276.782 657.366,277.028 656.313,276.542 C 655.312,276.08 654.533,274.789 654.901,273.531 C 655.27,272.27 656.664,271.616 657.981,272.094 C 658.947,272.445 659.589,273.42 659.658,274.301 L 658.069,274.282 z " id="path106420"/>
      <path style="fill:#a7a9ac;fill-rule:nonzero;stroke:none" d="M 666.437,276.364 L 666.41,276.361 L 666.074,270.939 L 659.741,270.618 L 659.738,270.609 L 666.694,270.272 L 666.437,276.364 z " id="path106422"/>
      <path style="fill:#000000;fill-rule:nonzero;stroke:none" d="M 661.172,271.991 L 659.375,278.493 L 653.601,276.346 L 654.807,270.272 L 661.172,271.991 z " id="path106424"/>
      <path style="fill:#ffffff;fill-rule:nonzero;stroke:none" d="M 666.074,270.939 L 666.411,276.393 L 660.611,276.251 L 659.739,270.618 L 666.074,270.939 z " id="path106426"/>
      <path style="fill:#ffffff;fill-rule:nonzero;stroke:none" d="M 658.069,274.282 C 657.998,273.933 657.801,273.634 657.416,273.523 C 656.925,273.381 656.468,273.634 656.32,274.13 C 656.184,274.583 656.432,275.146 656.919,275.303 C 657.314,275.43 657.666,275.294 657.902,275.018 L 659.179,276.029 C 658.597,276.782 657.366,277.028 656.313,276.542 C 655.312,276.08 654.533,274.789 654.901,273.531 C 655.27,272.27 656.664,271.616 657.981,272.094 C 658.947,272.445 659.589,273.42 659.658,274.301 L 658.069,274.282 z " id="path106428"/>
      <path style="fill:#000000;fill-rule:nonzero;stroke:none" d="M 665.468,275.706 L 664.018,275.693 L 663.89,274.044 L 663.864,274.042 L 661.349,275.559 L 660.753,271.561 L 662.209,271.542 L 662.357,273.063 L 665.173,271.407 L 665.468,275.706 z " id="path106430"/>
      <path style="fill:#000000;fill-rule:nonzero;stroke:none" d="M 660.538,269.753 L 660.538,268.875 C 660.493,268.902 659.944,269.222 659.944,269.222 L 659.944,268.881 L 659.683,268.881 L 659.683,269.736 C 659.729,269.707 660.253,269.382 660.253,269.382 L 660.277,269.388 L 660.277,269.753 L 660.538,269.753 z " id="path106432"/>
      <path style="fill:#000000;fill-rule:nonzero;stroke:none" d="M 657.593,269.752 L 657.593,269.545 L 657.334,269.545 L 657.334,268.881 L 657.045,268.881 L 657.045,269.545 L 656.792,269.545 L 656.792,269.752 L 657.593,269.752 z " id="path106434"/>
      <path style="fill:#000000;fill-rule:nonzero;stroke:none" d="M 656.534,269.255 L 656.548,269.263 C 656.625,269.312 656.671,269.396 656.671,269.487 C 656.671,269.633 656.552,269.752 656.406,269.752 L 656.143,269.753 L 655.831,269.753 L 655.831,268.881 L 656.115,268.881 L 656.115,269.133 L 656.259,269.133 C 656.259,269.133 656.424,268.894 656.433,268.881 L 656.773,268.881 C 656.745,268.925 656.534,269.255 656.534,269.255 M 656.25,269.345 L 656.116,269.345 L 656.115,269.572 L 656.25,269.572 C 656.312,269.572 656.363,269.521 656.363,269.458 C 656.363,269.396 656.312,269.345 656.25,269.345" id="path106436"/>
      <path style="fill:#000000;fill-rule:nonzero;stroke:none" d="M 658.08,269.756 C 657.817,269.756 657.603,269.558 657.603,269.315 C 657.603,269.072 657.817,268.875 658.08,268.875 C 658.343,268.875 658.557,269.072 658.557,269.315 C 658.557,269.558 658.343,269.756 658.08,269.756 M 658.08,269.119 C 657.972,269.119 657.884,269.207 657.884,269.315 C 657.884,269.423 657.972,269.511 658.08,269.511 C 658.189,269.511 658.277,269.423 658.277,269.315 C 658.277,269.207 658.189,269.119 658.08,269.119" id="path106438"/>
      <path style="fill:#000000;fill-rule:nonzero;stroke:none" d="M 659.09,269.756 C 658.827,269.756 658.613,269.558 658.613,269.315 C 658.613,269.072 658.827,268.875 659.09,268.875 C 659.353,268.875 659.567,269.072 659.567,269.315 C 659.567,269.558 659.353,269.756 659.09,269.756 M 659.09,269.119 C 658.982,269.119 658.894,269.207 658.894,269.315 C 658.894,269.423 658.982,269.511 659.09,269.511 C 659.199,269.511 659.287,269.423 659.287,269.315 C 659.287,269.207 659.199,269.119 659.09,269.119" id="path106440"/>
      <path style="fill:#000000;fill-rule:nonzero;stroke:none" d="M 653.793,269.314 C 653.793,269.561 654.009,269.762 654.274,269.762 C 654.461,269.762 654.629,269.661 654.709,269.505 C 654.679,269.494 654.47,269.414 654.448,269.406 C 654.414,269.471 654.349,269.513 654.274,269.513 C 654.165,269.513 654.076,269.424 654.076,269.314 C 654.076,269.205 654.165,269.115 654.274,269.115 C 654.346,269.115 654.411,269.156 654.446,269.218 C 654.465,269.212 654.686,269.152 654.719,269.143 C 654.645,268.978 654.469,268.867 654.274,268.867 C 654.009,268.867 653.793,269.067 653.793,269.314" id="path106442"/>
      <path style="fill:#000000;fill-rule:nonzero;stroke:none" d="M 655.222,269.813 C 655.218,269.819 655.21,269.813 655.21,269.813 C 655.152,269.711 654.672,268.877 654.674,268.88 C 654.723,268.88 654.965,268.877 654.983,268.877 C 654.992,268.893 655.045,268.995 655.045,268.995 L 655.386,268.995 C 655.386,268.995 655.429,268.897 655.437,268.88 C 655.456,268.88 655.705,268.88 655.753,268.88 C 655.644,269.072 655.276,269.724 655.222,269.813 M 655.111,269.162 L 655.208,269.346 L 655.212,269.346 L 655.317,269.162 L 655.111,269.162 z " id="path106444"/>
      <path style="fill:#000000;fill-rule:nonzero;stroke:none" d="M 667.695,269.749 C 667.669,269.705 667.452,269.346 667.452,269.346 C 667.452,269.346 667.726,268.926 667.755,268.881 L 667.417,268.881 C 667.408,268.895 667.147,269.271 667.147,269.271 L 667.145,269.219 L 667.145,268.881 L 666.885,268.881 L 666.885,269.749 L 667.145,269.749 L 667.145,269.343 C 667.145,269.343 667.402,269.734 667.411,269.749 L 667.695,269.749 z " id="path106446"/>
      <path style="fill:#000000;fill-rule:nonzero;stroke:none" d="M 661.861,269.752 L 661.861,268.865 C 661.815,268.892 661.263,269.219 661.263,269.219 C 661.263,269.219 661.266,268.911 661.266,268.882 L 660.977,268.882 L 660.977,269.752 C 661.023,269.723 661.545,269.396 661.545,269.396 L 661.568,269.402 L 661.568,269.752 L 661.861,269.752 z " id="path106448"/>
      <path style="fill:#000000;fill-rule:nonzero;stroke:none" d="M 662.357,269.75 C 662.357,269.75 662.686,269.75 662.716,269.75 L 662.716,269.568 L 662.341,269.568 L 662.341,269.408 L 662.685,269.408 L 662.685,269.225 L 662.341,269.225 L 662.341,269.065 L 662.716,269.065 L 662.716,268.883 L 662.071,268.883 L 662.071,269.75 L 662.357,269.75 z " id="path106450"/>
      <path style="fill:#000000;fill-rule:nonzero;stroke:none" d="M 663.635,269.749 L 663.635,269.542 L 663.378,269.542 C 663.378,269.542 663.378,268.912 663.378,268.881 L 663.089,268.881 L 663.089,269.542 L 662.838,269.542 L 662.838,269.749 L 663.635,269.749 z " id="path106452"/>
      <path style="fill:#000000;fill-rule:nonzero;stroke:none" d="M 663.987,269.75 C 663.995,269.732 664.118,269.44 664.118,269.44 C 664.118,269.44 664.219,269.673 664.242,269.727 C 664.265,269.673 664.364,269.44 664.364,269.44 C 664.364,269.44 664.489,269.732 664.496,269.75 L 664.784,269.75 C 664.768,269.709 664.466,268.924 664.444,268.867 C 664.415,268.915 664.243,269.207 664.243,269.207 C 664.243,269.207 664.055,268.913 664.025,268.866 C 664.005,268.922 663.715,269.71 663.7,269.75 L 663.987,269.75 z " id="path106454"/>
      <path style="fill:#000000;fill-rule:nonzero;stroke:none" d="M 666.563,269.255 L 666.577,269.263 C 666.654,269.312 666.7,269.395 666.7,269.486 C 666.7,269.631 666.581,269.75 666.435,269.75 L 666.174,269.75 L 665.864,269.75 L 665.864,268.882 L 666.157,268.882 L 666.157,269.133 L 666.305,269.133 C 666.305,269.133 666.461,268.895 666.47,268.882 L 666.809,268.882 C 666.78,268.926 666.563,269.255 666.563,269.255 M 666.29,269.334 L 666.164,269.334 L 666.162,269.559 L 666.29,269.559 C 666.352,269.559 666.403,269.509 666.403,269.447 C 666.403,269.385 666.352,269.334 666.29,269.334" id="path106456"/>
      <path style="fill:#000000;fill-rule:nonzero;stroke:none" d="M 665.279,269.753 C 665.017,269.753 664.804,269.556 664.804,269.314 C 664.804,269.072 665.017,268.876 665.279,268.876 C 665.541,268.876 665.754,269.072 665.754,269.314 C 665.754,269.556 665.541,269.753 665.279,269.753 M 665.279,269.119 C 665.171,269.119 665.084,269.206 665.084,269.314 C 665.084,269.422 665.171,269.51 665.279,269.51 C 665.387,269.51 665.475,269.422 665.475,269.314 C 665.475,269.206 665.387,269.119 665.279,269.119" id="path106458"/>
      <path style="fill:#000000;fill-rule:nonzero;stroke:none" d="M 667.871,269.039 L 667.808,269.039 L 667.808,269.064 L 667.961,269.064 L 667.961,269.039 L 667.899,269.039 L 667.899,268.865 L 667.871,268.865 L 667.871,269.039 z " id="path106460"/>
      <path style="fill:#000000;fill-rule:nonzero;stroke:none" d="M 667.99,269.064 L 668.038,269.064 L 668.1,268.899 L 668.161,269.064 L 668.208,269.064 L 668.208,268.865 L 668.18,268.865 L 668.18,269.038 L 668.179,269.038 L 668.113,268.865 L 668.085,268.865 L 668.019,269.038 L 668.018,269.038 L 668.018,268.865 L 667.99,268.865 L 667.99,269.064 z " id="path106462"/>
    </g>
  </g>
</svg>
